icons/folder-vscode-open-dark.svg

<svg width="16" height="16" viewBox="0 0 16 16" fill="none" xmlns="http://www.w3.org/2000/svg">
<path d="M14.9999 12V14.15C15.0063 14.1961 14.9956 14.2429 14.9698 14.2816C14.944 14.3203 14.9049 14.3482 14.8599 14.36C14.7199 14.42 14.5799 14.49 14.4399 14.55L14.4299 13.17V12.89C14.544 12.8498 14.6479 12.7851 14.7343 12.7004C14.8206 12.6158 14.8874 12.5132 14.9299 12.4V14.06C14.922 14.1314 14.9323 14.2037 14.9599 14.27V12.32C14.9899 12.2161 15.0034 12.1081 14.9999 12Z" fill="#0080BF"/>
<path d="M15 9.02V12C15.0034 12.1081 14.9899 12.2161 14.96 12.32V9.08C14.96 9.01 14.97 8.94 14.97 8.86C14.9817 8.86936 14.9908 8.88175 14.996 8.89584C15.0013 8.90994 15.0027 8.9252 15 8.94V9.02Z" fill="#0080BF"/>
<path d="M15 3V7.78C14.67 7.62 14.33 7.47 14 7.31V3H8L7 5H3V8H6.52L6.43 8.06C6.41 8.07 6.4 8.09 6.38 8.11H6.37C6.3148 8.15821 6.26454 8.2118 6.22 8.27C6.16528 8.34329 6.12149 8.42413 6.09 8.51C6.04578 8.59326 6.0218 8.68575 6.02 8.78L6.01689 8.78458L6.0158 8.79L6.01689 8.79543L6.02 8.8C6.01192 8.81536 6.00844 8.83272 6.01 8.85V8.88C6.00204 8.92622 5.99869 8.97312 6 9.02V13H3L0 8H2V5C2 4.09 3.03 4.01 3.03 4H6.5L7.5 2H14C14.1321 1.99714 14.2634 2.02104 14.386 2.07028C14.5087 2.11952 14.6201 2.19308 14.7135 2.28652C14.8069 2.37995 14.8805 2.49133 14.9297 2.61395C14.979 2.73657 15.0029 2.86789 15 3Z" fill="#7C868D"/>
<path d="M14.97 8.86C14.97 8.94 14.96 9.01 14.96 9.08V12.32C14.95 12.35 14.94 12.37 14.93 12.4V9.09C14.93 9.05 14.94 9.01 14.91 9C14.9045 8.99508 14.8974 8.99236 14.89 8.99236C14.8826 8.99236 14.8755 8.99508 14.87 9C14.86 9 14.85 9 14.85 9.01C14.85 9.02 14.83 9.02 14.82 9.03C14.55 9.3 14.27 9.56 14 9.82V8.44L14.02 8.42C14.34 8.57 14.66 8.71 14.97 8.86Z" fill="#0075BA"/>
<path d="M14.9601 14.06V14.27C14.9325 14.2037 14.9221 14.1314 14.9301 14.06V12.4C14.9401 12.37 14.9501 12.35 14.9601 12.32V14.06Z" fill="#0075BA"/>
<path d="M14.93 10.17V12.4C14.8875 12.5132 14.8207 12.6158 14.7343 12.7004C14.648 12.7851 14.5441 12.8498 14.43 12.89V12.77C14.4312 12.6099 14.3926 12.452 14.3175 12.3106C14.2424 12.1692 14.1333 12.0487 14 11.96V9.82C14.27 9.56 14.55 9.3 14.82 9.03C14.83 9.02 14.84 9.01 14.85 9.01C14.86 9.01 14.86 9 14.87 9C14.8755 8.99508 14.8826 8.99236 14.89 8.99236C14.8974 8.99236 14.9045 8.99508 14.91 9C14.94 9.01 14.93 9.05 14.93 9.09V10.17Z" fill="#0080BF"/>
<path d="M14.8701 9C14.8601 9 14.8601 9 14.8501 9.01C14.8501 9 14.8601 9 14.8701 9Z" fill="#0080BF"/>
<path d="M14.43 13.17L14.44 14.55C14.32 14.61 14.19 14.66 14.07 14.72C13.9655 14.5163 13.9172 14.2885 13.93 14.06V13H14L13.93 12.88V11.9L13.95 11.92C13.9706 11.9275 13.9882 11.9415 14 11.96V12.98C14.1478 12.9784 14.2939 12.9479 14.43 12.89V13.17Z" fill="#0080BF"/>
<path d="M14.43 12.77V12.89C14.2939 12.9479 14.1478 12.9784 14 12.98V11.96C14.1333 12.0487 14.2424 12.1692 14.3175 12.3106C14.3926 12.452 14.4312 12.6099 14.43 12.77Z" fill="#0080BF"/>
<path d="M14.0699 14.72C13.8899 14.8 13.7199 14.88 13.5399 14.96C13.4999 14.98 13.4499 15.03 13.3899 14.97C13.421 14.9298 13.4385 14.8808 13.4399 14.83C13.4299 14.22 13.4299 13.6 13.4299 13H13.9299V14.06C13.9171 14.2885 13.9654 14.5163 14.0699 14.72Z" fill="#0080BF"/>
<path d="M14.02 8.42L14 8.44V8.41C14.01 8.42 14.01 8.42 14.02 8.42Z" fill="#0075BA"/>
<path d="M13.9999 9.82V11.96C13.9881 11.9415 13.9705 11.9275 13.9499 11.92L13.9299 11.9V11.27L13.8299 11.36L13.5999 11.58C13.5399 11.53 13.4899 11.47 13.4299 11.42V10.55C13.4199 10.5 13.4499 10.44 13.3999 10.39L13.9999 9.82Z" fill="#0080BF"/>
<path d="M13.9999 8.44V9.82L13.3999 10.39C13.2199 10.56 13.0499 10.73 12.8699 10.9C12.8499 10.89 12.8399 10.87 12.8199 10.86C12.7682 10.8088 12.707 10.7681 12.6399 10.74L12.3999 10.34C12.4117 10.0847 12.523 9.84426 12.7099 9.67L12.9499 9.44L13.9999 8.44Z" fill="#0075BA"/>
<path d="M13.9999 8.41001V8.44001L12.9499 9.44001L12.7099 9.67C12.523 9.84426 12.4118 10.0847 12.3999 10.34L11.9399 9.57C12.2299 9.29 12.5299 9.01001 12.8199 8.73001C12.9999 8.56001 13.1699 8.39 13.3499 8.22C13.3899 8.18 13.4199 8.15 13.4899 8.18C13.6599 8.26 13.8299 8.34001 13.9999 8.41001Z" fill="#0075BA"/>
<path d="M13.9299 12.88L13.9999 13H13.9299V12.88Z" fill="#0080BF"/>
<path d="M13.9299 12.88V13H13.4299V12.05L13.9299 12.88Z" fill="#0080BF"/>
<path d="M13.9299 11.9V12.88L13.4299 12.05V11.74L13.5999 11.58C13.6999 11.68 13.8199 11.79 13.9299 11.9Z" fill="#0080BF"/>
<path d="M13.9301 11.27V11.9C13.8201 11.79 13.7001 11.68 13.6001 11.58L13.8301 11.36L13.9301 11.27Z" fill="#0080BF"/>
<path d="M13.5999 11.58L13.4299 11.74V11.42C13.4899 11.47 13.5399 11.53 13.5999 11.58Z" fill="#0080BF"/>
<path d="M13.4299 13C13.4299 13.6 13.4299 14.22 13.4399 14.83C13.4386 14.8808 13.4211 14.9298 13.3899 14.97C13.1299 14.73 12.8699 14.49 12.6199 14.24C12.5599 14.18 12.4899 14.12 12.4299 14.06V13H13.4299Z" fill="#1B8AC5"/>
<path d="M13.4299 12.77V13H12.4299V12.72L12.6499 12.51C12.7512 12.4603 12.84 12.3885 12.9099 12.3C13.0299 12.42 13.1499 12.54 13.2799 12.66C13.3299 12.7 13.3599 12.76 13.4299 12.77Z" fill="#1B8AC5"/>
<path d="M12.8699 10.9C12.8408 10.9241 12.814 10.9509 12.7899 10.98L12.6399 10.74C12.707 10.7681 12.7682 10.8088 12.8199 10.86C12.8399 10.87 12.8499 10.89 12.8699 10.9Z" fill="#0075BA"/>
<path d="M12.73 15.71C12.7682 15.7495 12.812 15.7831 12.86 15.81C12.8083 15.7892 12.7634 15.7546 12.73 15.71Z" fill="#252526"/>
<path d="M12.9099 12.3C12.84 12.3885 12.7512 12.4603 12.6499 12.51L12.4299 12.72V11.86C12.5999 12 12.7499 12.15 12.9099 12.3Z" fill="#1B8AC5"/>
<path d="M12.7899 10.98C12.6699 11.09 12.5499 11.2 12.4299 11.32V10.66C12.503 10.6778 12.5735 10.7047 12.6399 10.74L12.7899 10.98Z" fill="#0075BA"/>
<path d="M12.3999 10.34L12.6399 10.74C12.5735 10.7047 12.503 10.6778 12.4299 10.66V10.61C12.4095 10.5351 12.3994 10.4577 12.3999 10.38V10.34Z" fill="#0075BA"/>
<path d="M12.43 13.17V14.06C12.2 13.84 11.97 13.61 11.74 13.39C11.7724 13.359 11.8025 13.3255 11.83 13.29L12.13 13H12.43V13.17Z" fill="#1B8AC5"/>
<path d="M12.4299 12.77V13H12.1299L12.4299 12.72V12.77Z" fill="#1B8AC5"/>
<path d="M12.43 12.33V12.72L12.13 13H11.33C11.23 12.9 11.12 12.8 11.02 12.7C11.0194 12.6946 11.0199 12.6891 11.0217 12.6839C11.0234 12.6787 11.0263 12.674 11.03 12.67C11.38 12.34 11.73 12 12.08 11.67C12.0922 11.6557 12.1077 11.6447 12.1251 11.6377C12.1425 11.6307 12.1614 11.6281 12.18 11.63C12.2681 11.7014 12.3516 11.7782 12.43 11.86V12.33Z" fill="#1B8AC5"/>
<path d="M12.43 10.66V11.32C12.37 11.37 12.31 11.43 12.25 11.49C12.21 11.53 12.15 11.55 12.18 11.63C12.1613 11.6281 12.1424 11.6307 12.125 11.6377C12.1076 11.6447 12.0922 11.6557 12.08 11.67C11.73 12 11.38 12.34 11.03 12.67C11.0262 12.6739 11.0233 12.6787 11.0216 12.6839C11.0199 12.6891 11.0193 12.6946 11.02 12.7C10.95 12.71 10.92 12.77 10.87 12.81C10.8 12.87 10.74 12.94 10.67 13H10.07C10.0196 12.852 10.0093 12.6933 10.04 12.54C10.1934 12.5008 10.3366 12.4292 10.46 12.33L10.51 12.29C10.59 12.23 10.66 12.17 10.73 12.11C10.96 11.88 11.2 11.66 11.43 11.43L11.68 11.19C11.8312 11.0451 11.9327 10.8561 11.97 10.65C12.0353 10.6339 12.1027 10.6272 12.17 10.63H12.29C12.3375 10.6352 12.3844 10.6452 12.43 10.66Z" fill="#0075BA"/>
<path d="M12.43 10.61V10.66C12.3845 10.6452 12.3375 10.6352 12.29 10.63H12.17C12.1027 10.6272 12.0354 10.6339 11.97 10.65C11.9816 10.5873 11.9883 10.5238 11.99 10.46C11.9891 10.2074 11.8926 9.96442 11.72 9.78C11.79 9.71 11.87 9.64 11.94 9.57L12.4 10.34V10.38C12.3994 10.4577 12.4095 10.5351 12.43 10.61Z" fill="#0075BA"/>
<path d="M12.1301 13L11.8301 13.29C11.8026 13.3255 11.7725 13.359 11.7401 13.39C11.6001 13.26 11.4601 13.13 11.3301 13H12.1301Z" fill="#1B8AC5"/>
<path d="M11.9901 10.46C11.9884 10.5238 11.9817 10.5873 11.9701 10.65C11.7512 10.6901 11.5492 10.7945 11.3901 10.95L10.3401 11.95C10.1873 12.0992 10.0828 12.2908 10.0401 12.5V12.54C9.97063 12.5516 9.90045 12.5583 9.83007 12.56C9.74504 12.5614 9.66042 12.5478 9.58007 12.52V12.37L9.57007 11.82C9.60007 11.79 9.64007 11.76 9.67007 11.73C9.73786 11.6889 9.79318 11.6302 9.83007 11.56C9.90007 11.5 9.97007 11.45 10.0301 11.39C10.3501 11.08 10.6701 10.77 10.9901 10.47C11.2301 10.24 11.4801 10.01 11.7201 9.78C11.8927 9.96442 11.9892 10.2074 11.9901 10.46Z" fill="#0075BA"/>
<path d="M11.97 10.65C11.9328 10.8561 11.8313 11.0451 11.68 11.19L11.43 11.43C11.2 11.66 10.96 11.88 10.73 12.11C10.66 12.17 10.59 12.23 10.51 12.29L10.46 12.33C10.3366 12.4292 10.1934 12.5008 10.04 12.54V12.5C10.0828 12.2908 10.1873 12.0992 10.34 11.95L11.39 10.95C11.5492 10.7945 11.7512 10.6901 11.97 10.65Z" fill="#0075BA"/>
<path d="M11.0001 8L11.4101 8.69L10.9901 9.08C10.6101 8.72 10.2401 8.36 9.86011 8H11.0001Z" fill="#68737B"/>
<path d="M10.9901 10.47C10.6701 10.77 10.3501 11.08 10.0301 11.39C9.97007 11.45 9.90007 11.5 9.83007 11.56C9.74007 11.48 9.66007 11.4 9.57007 11.31V10.45C9.73007 10.29 9.89007 10.14 10.0401 9.99L10.2701 9.77C10.5101 10.01 10.7501 10.24 10.9901 10.47Z" fill="#1B8AC5"/>
<path d="M10.6701 13C10.5401 13.12 10.4101 13.25 10.2901 13.37C10.1855 13.2681 10.1097 13.1405 10.0701 13H10.6701Z" fill="#0075BA"/>
<path d="M10.29 13.37C9.74997 13.88 9.21997 14.39 8.68997 14.9C8.6574 14.941 8.61098 14.9687 8.55942 14.9779C8.50787 14.9871 8.45473 14.9772 8.40997 14.95C8.25997 14.88 8.11997 14.81 7.96997 14.75L8.95997 13.8L9.26997 13.5C9.41008 13.3642 9.50741 13.1904 9.54997 13H10.07C10.1096 13.1405 10.1855 13.2681 10.29 13.37Z" fill="#0075BA"/>
<path d="M10.27 9.77L10.04 9.99C9.88998 10.14 9.72998 10.29 9.56998 10.45V10.4C9.57083 10.1757 9.49694 9.95758 9.35998 9.78C9.15446 9.53645 8.93046 9.30911 8.68998 9.1C8.54998 8.98 8.41998 8.85 8.28998 8.72C8.18998 8.62 8.08998 8.52 7.98998 8.43L7.97998 8.42C8.13998 8.34 8.28998 8.27 8.44998 8.2C8.52998 8.16 8.57998 8.15 8.64998 8.22C9.17998 8.74 9.72998 9.26 10.27 9.77Z" fill="#1B8AC5"/>
<path d="M10.07 13H9.55005C9.57049 12.9251 9.58058 12.8477 9.58005 12.77V12.52C9.6604 12.5478 9.74502 12.5614 9.83005 12.56C9.90043 12.5583 9.97061 12.5516 10.0401 12.54C10.0094 12.6933 10.0197 12.852 10.07 13Z" fill="#0075BA"/>
<path d="M9.5801 12.52V12.77C9.58063 12.8477 9.57053 12.9251 9.5501 13H8.3501C8.4301 12.93 8.5001 12.85 8.5801 12.78C8.7601 12.61 8.9401 12.44 9.1101 12.26L9.1401 12.29C9.26211 12.4067 9.41466 12.4864 9.5801 12.52Z" fill="#0075BA"/>
<path d="M9.58011 12.37V12.52C9.41467 12.4864 9.26212 12.4067 9.14011 12.29L9.11011 12.26C9.27011 12.12 9.42011 11.97 9.57011 11.82L9.58011 12.37Z" fill="#0075BA"/>
<path d="M9.57011 10.73V11.31L9.11011 10.88C9.13392 10.8476 9.1607 10.8174 9.19011 10.79L9.27011 10.72C9.29508 10.7058 9.31853 10.689 9.34011 10.67C9.42011 10.59 9.50011 10.52 9.57011 10.45V10.73Z" fill="#1B8AC5"/>
<path d="M9.57001 10.4V10.45C9.50001 10.52 9.42001 10.59 9.34001 10.67C9.31844 10.689 9.29498 10.7058 9.27001 10.72L9.19001 10.79C9.1606 10.8174 9.13382 10.8476 9.11001 10.88C8.98001 10.76 8.85001 10.63 8.72001 10.51C8.67001 10.47 8.64001 10.41 8.57001 10.4C8.40546 10.2021 8.22484 10.0182 8.03001 9.85C7.78001 9.63 7.55001 9.38 7.31001 9.15L7.01001 8.88C7.14599 8.787 7.29402 8.71299 7.45001 8.66C7.62001 8.58 7.80001 8.49 7.98001 8.42L7.99001 8.43C8.09001 8.52 8.19001 8.62 8.29001 8.72C8.42001 8.85 8.55001 8.98 8.69001 9.1C8.93049 9.30911 9.15448 9.53645 9.36001 9.78C9.49697 9.95759 9.57086 10.1757 9.57001 10.4Z" fill="#1B8AC5"/>
<path d="M8.35001 13H9.55001C9.50745 13.1904 9.41012 13.3642 9.27001 13.5L8.96001 13.8L7.97001 14.75C7.70001 14.62 7.42001 14.49 7.15001 14.37C7.10001 14.35 7.03001 14.35 7.01001 14.28C7.06001 14.23 7.11001 14.19 7.16001 14.14C7.55001 13.76 7.95001 13.38 8.35001 13Z" fill="#0075BA"/>
<path d="M8.57 11.74C8.57 12.09 8.58 12.43 8.58 12.78C8.5 12.85 8.43 12.93 8.35 13H7V12.91L7.54 12.39L7.89 12.05L8.16 11.8C8.24158 11.7284 8.31841 11.6516 8.39 11.57L8.57 11.74Z" fill="#00649F"/>
<path d="M8.56989 11.47V11.74L8.38989 11.57C8.44989 11.52 8.50989 11.47 8.56989 11.41V11.47Z" fill="#00649F"/>
<path d="M8.57 10.4V11.41C8.51 11.47 8.45 11.52 8.39 11.57L8.05 11.25C7.95002 11.1898 7.86191 11.1119 7.79 11.02C7.66018 10.8702 7.51982 10.7298 7.37 10.6C7.24 10.49 7.12 10.37 7 10.25V9.03C7 8.98 7.01 8.93 7.01 8.88L7.31 9.15C7.55 9.38 7.78 9.63 8.03 9.85C8.22483 10.0182 8.40545 10.2021 8.57 10.4Z" fill="#00649F"/>
<path d="M8.39 11.57C8.31841 11.6516 8.24158 11.7284 8.16 11.8L7.89 12.05L7.54 12.39L7 12.91V10.25C7.12 10.37 7.24 10.49 7.37 10.6C7.51982 10.7298 7.66018 10.8702 7.79 11.02C7.86191 11.1119 7.95002 11.1898 8.05 11.25L8.39 11.57Z" fill="#00649F"/>
<path d="M8.35 13C7.95 13.38 7.55 13.76 7.16 14.14C7.11 14.19 7.06 14.23 7.01 14.28C7.01 14.23 7 14.19 7 14.14V13H8.35Z" fill="#00649F"/>
<path d="M6.37997 8.11C6.3194 8.15557 6.26554 8.20942 6.21997 8.27C6.26452 8.2118 6.31477 8.1582 6.36997 8.11H6.37997Z" fill="#252526"/>
<path d="M6.22009 8.27C6.16507 8.3431 6.12126 8.42399 6.09009 8.51C6.12158 8.42413 6.16537 8.34328 6.22009 8.27Z" fill="#252526"/>
<path d="M6.09002 8.51C6.05038 8.59497 6.02665 8.68648 6.02002 8.78C6.02182 8.68575 6.0458 8.59325 6.09002 8.51Z" fill="#252526"/>
<path d="M6.01988 8.8C6.01988 8.83 6.00988 8.86 6.00988 8.88V8.85C6.00833 8.83272 6.0118 8.81536 6.01988 8.8Z" fill="#252526"/>
</svg>

<svg xmlns="http://www.w3.org/2000/svg" width="16" height="16" viewBox="0 0 16 16"><defs><style>.a{fill:#2490c9;}.b{fill:#7c868d;}.c{fill:#1987c5;}.d{fill:#3a9ace;}.e{fill:#252526;}.f{fill:#1176ae;}</style></defs><title>folder-vscode-open-dark</title><path class="a" d="M15,12v2.15a.19.19,0,0,1-.14.21l-.42.19V12.89a.83.83,0,0,0,.5-.49v1.66a.42.42,0,0,0,0,.21V12.32A1,1,0,0,0,15,12Z"/><path class="a" d="M15,9v3a1,1,0,0,1,0,.32V9.08c0-.07,0-.14,0-.22a.08.08,0,0,1,0,.08Z"/><path class="b" d="M15,3V7.78l-1-.47V3H8L7,5H3V8H6.52l-.09.06,0,0h0a1.1,1.1,0,0,0-.15.16.94.94,0,0,0-.13.24A.6.6,0,0,0,6,8.78a0,0,0,0,0,0,0,.09.09,0,0,0,0,0v0A.71.71,0,0,0,6,9v4H3L0,8H2V5c0-.91,1-1,1-1H6.5l1-2H14A1,1,0,0,1,15,3Z"/><path class="c" d="M15,8.86c0,.08,0,.15,0,.22v3.24l0,.08V9.09s0-.08,0-.09h-.06l0,0L14,9.82V8.44l0,0Z"/><path class="c" d="M15,14.06v.21a.42.42,0,0,1,0-.21V12.4l0-.08Z"/><path class="a" d="M14.93,10.17V12.4a.83.83,0,0,1-.5.49v-.12A1,1,0,0,0,14,12V9.82L14.82,9l0,0h.06s0,.05,0,.09Z"/><path class="a" d="M14.87,9h0Z"/><path class="a" d="M14.43,13.17v1.38l-.37.17a1.29,1.29,0,0,1-.14-.66V13H14l-.07-.12v-1l0,0A.1.1,0,0,1,14,12v1a1.13,1.13,0,0,0,.43-.09Z"/><path class="a" d="M14.43,12.77v.12A1.13,1.13,0,0,1,14,13V12A1,1,0,0,1,14.43,12.77Z"/><path class="a" d="M14.07,14.72l-.53.24s-.09.07-.15,0a.24.24,0,0,0,0-.14c0-.61,0-1.23,0-1.83h.5v1.06A1.29,1.29,0,0,0,14.07,14.72Z"/><path class="c" d="M14,8.42l0,0v0Z"/><path class="a" d="M14,9.82V12a.1.1,0,0,0-.05,0l0,0v-.63l-.1.09-.23.22-.17-.16v-.87c0-.05,0-.11,0-.16Z"/><path class="c" d="M14,8.44V9.82l-.6.57-.53.51,0,0a.57.57,0,0,0-.18-.12l-.24-.4a1,1,0,0,1,.31-.67L13,9.44Z"/><path class="c" d="M14,8.41v0L13,9.44l-.24.23a1,1,0,0,0-.31.67l-.46-.77.88-.84.53-.51s.07-.07.14,0Z"/><polygon class="a" points="13.93 12.88 14 13 13.93 13 13.93 12.88"/><path class="a" d="M13.93,12.88V13h-.5v-.95Z"/><path class="a" d="M13.93,11.9v1l-.5-.83v-.31l.17-.16Z"/><path class="a" d="M13.93,11.27v.63l-.33-.32.23-.22Z"/><path class="a" d="M13.6,11.58l-.17.16v-.32Z"/><path class="d" d="M13.43,13c0,.6,0,1.22,0,1.83a.24.24,0,0,1,0,.14c-.26-.24-.52-.48-.77-.73l-.19-.18V13Z"/><path class="d" d="M13.43,12.77V13h-1v-.28l.22-.21a.75.75,0,0,0,.26-.21l.37.36C13.33,12.7,13.36,12.76,13.43,12.77Z"/><path class="c" d="M12.87,10.9l-.08.08-.15-.24a.57.57,0,0,1,.18.12Z"/><path class="e" d="M12.73,15.71a.57.57,0,0,0,.13.1A.31.31,0,0,1,12.73,15.71Z"/><path class="d" d="M12.91,12.3a.75.75,0,0,1-.26.21l-.22.21v-.86C12.6,12,12.75,12.15,12.91,12.3Z"/><path class="c" d="M12.79,11l-.36.34v-.66a.9.9,0,0,1,.21.08Z"/><path class="c" d="M12.4,10.34l.24.4a.9.9,0,0,0-.21-.08v-.05a.85.85,0,0,1,0-.23Z"/><path class="d" d="M12.43,13.17v.89l-.69-.67.09-.1.3-.29h.3Z"/><polygon class="d" points="12.43 12.77 12.43 13 12.13 13 12.43 12.72 12.43 12.77"/><path class="d" d="M12.43,12.33v.39l-.3.28h-.8L11,12.7a0,0,0,0,1,0,0l1.05-1a.12.12,0,0,1,.1,0,2.73,2.73,0,0,1,.25.23Z"/><path class="c" d="M12.43,10.66v.66l-.18.17s-.1.06-.07.14a.12.12,0,0,0-.1,0l-1.05,1a0,0,0,0,0,0,0c-.07,0-.1.07-.15.11l-.2.19h-.6a.89.89,0,0,1,0-.46,1.11,1.11,0,0,0,.42-.21l0,0,.22-.18.7-.68.25-.24a1,1,0,0,0,.29-.54.71.71,0,0,1,.2,0h.12Z"/><path class="c" d="M12.43,10.61v.05l-.14,0h-.12a.71.71,0,0,0-.2,0,1.23,1.23,0,0,0,0-.19,1,1,0,0,0-.27-.68l.22-.21.46.77v0A.85.85,0,0,0,12.43,10.61Z"/><path class="d" d="M12.13,13l-.3.29-.09.1L11.33,13Z"/><path class="c" d="M12,10.46a1.23,1.23,0,0,1,0,.19,1.12,1.12,0,0,0-.58.3l-1.05,1a1.07,1.07,0,0,0-.3.55v0l-.21,0a.73.73,0,0,1-.25,0v-.7l.1-.09a.44.44,0,0,0,.16-.17l.2-.17,1-.92.73-.69A1,1,0,0,1,12,10.46Z"/><path class="c" d="M12,10.65a1,1,0,0,1-.29.54l-.25.24-.7.68-.22.18,0,0a1.11,1.11,0,0,1-.42.21v0a1.07,1.07,0,0,1,.3-.55l1.05-1A1.12,1.12,0,0,1,12,10.65Z"/><path class="b" d="M11,8l.41.69L11,9.08,9.86,8Z"/><path class="d" d="M11,10.47l-1,.92-.2.17-.26-.25v-.86L10,10l.23-.22Z"/><path class="c" d="M10.67,13l-.38.37a.83.83,0,0,1-.22-.37Z"/><path class="c" d="M10.29,13.37,8.69,14.9a.22.22,0,0,1-.28,0L8,14.75l1-.95.31-.3a1,1,0,0,0,.28-.5h.52A.83.83,0,0,0,10.29,13.37Z"/><path class="d" d="M10.27,9.77,10,10l-.47.46v0a1,1,0,0,0-.21-.62,6.2,6.2,0,0,0-.67-.68c-.14-.12-.27-.25-.4-.38L8,8.43H8l.47-.22c.08,0,.13,0,.2,0C9.18,8.74,9.73,9.26,10.27,9.77Z"/><path class="c" d="M10.07,13H9.55a.85.85,0,0,0,0-.23v-.25a.73.73,0,0,0,.25,0l.21,0A.89.89,0,0,0,10.07,13Z"/><path class="c" d="M9.58,12.52v.25a.85.85,0,0,1,0,.23H8.35l.23-.22c.18-.17.36-.34.53-.52l0,0A.89.89,0,0,0,9.58,12.52Z"/><path class="c" d="M9.58,12.37v.15a.89.89,0,0,1-.44-.23l0,0c.16-.14.31-.29.46-.44Z"/><path class="d" d="M9.57,10.73v.58l-.46-.43.08-.09.08-.07.07-.05.23-.22Z"/><path class="d" d="M9.57,10.4v0l-.23.22-.07.05-.08.07-.08.09-.39-.37c-.05,0-.08-.1-.15-.11A4.68,4.68,0,0,0,8,9.85c-.25-.22-.48-.47-.72-.7L7,8.88a1.81,1.81,0,0,1,.44-.22c.17-.08.35-.17.53-.24H8l.3.29c.13.13.26.26.4.38a6.2,6.2,0,0,1,.67.68A1,1,0,0,1,9.57,10.4Z"/><path class="c" d="M8.35,13h1.2a1,1,0,0,1-.28.5L9,13.8l-1,.95-.82-.38c-.05,0-.12,0-.14-.09l.15-.14Z"/><path class="f" d="M8.57,11.74c0,.35,0,.69,0,1L8.35,13H7v-.09l.54-.52.35-.34.27-.25.23-.23Z"/><path class="f" d="M8.57,11.47v.27l-.18-.17.18-.16Z"/><path class="f" d="M8.57,10.4v1l-.18.16-.34-.32A1,1,0,0,1,7.79,11a4.16,4.16,0,0,0-.42-.42c-.13-.11-.25-.23-.37-.35V9s0-.1,0-.15l.3.27c.24.23.47.48.72.7A4.68,4.68,0,0,1,8.57,10.4Z"/><path class="f" d="M8.39,11.57l-.23.23-.27.25-.35.34L7,12.91V10.25c.12.12.24.24.37.35a4.16,4.16,0,0,1,.42.42,1,1,0,0,0,.26.23Z"/><path class="f" d="M8.35,13,7.16,14.14,7,14.28s0-.09,0-.14V13Z"/><path class="e" d="M6.38,8.11a.81.81,0,0,0-.16.16,1.1,1.1,0,0,1,.15-.16Z"/><path class="e" d="M6.22,8.27a.92.92,0,0,0-.13.24A.94.94,0,0,1,6.22,8.27Z"/><path class="e" d="M6.09,8.51A.77.77,0,0,0,6,8.78.6.6,0,0,1,6.09,8.51Z"/><path class="e" d="M6,8.8s0,.06,0,.08v0A.09.09,0,0,1,6,8.8Z"/></svg>
